svgs/sharp-regular/film-simple.svg

<svg xmlns="http://www.w3.org/2000/svg" viewBox="0 0 512 512"><!--! Font Awesome Pro 6.6.0 by @fontawesome - https://fontawesome.com License - https://fontawesome.com/license (Commercial License) Copyright 2024 Fonticons, Inc. --><path d="M160 432l192 0 0-112 0-128 0-112L160 80l0 112 0 128 0 112zM112 80L48 80l0 88 64 0 0-88zm0 136l-64 0 0 80 64 0 0-80zm0 128l-64 0 0 88 64 0 0-88zM400 80l0 88 64 0 0-88-64 0zm64 136l-64 0 0 80 64 0 0-80zm0 128l-64 0 0 88 64 0 0-88zm0-312l48 0 0 48 0 352 0 48-48 0L48 480 0 480l0-48L0 80 0 32l48 0 416 0z"/></svg>

<svg xmlns="http://www.w3.org/2000/svg" viewBox="0 0 512 512"><!--! Font Awesome Pro 6.4.2 by @fontawesome - https://fontawesome.com License - https://fontawesome.com/license (Commercial License) Copyright 2023 Fonticons, Inc. --><path d="M160 432H352V320 192 80H160V192 320 432zM112 80H48v88h64V80zm0 136H48v80h64V216zm0 128H48v88h64V344zM400 80v88h64V80H400zm64 136H400v80h64V216zm0 128H400v88h64V344zm0-312h48V80 432v48H464 48 0V432 80 32H48 464z"/></svg>
